icons/circle/48/peek.svg

<?xml version="1.0" encoding="UTF-8" standalone="no"?>
<svg id="svg2" xmlns:dc="http://purl.org/dc/elements/1.1/" version="1.1" xmlns:cc="http://creativecommons.org/ns#" xmlns="http://www.w3.org/2000/svg" viewBox="0 0 48 48" xmlns:rdf="http://www.w3.org/1999/02/22-rdf-syntax-ns#">
 <metadata id="metadata59">
  <rdf:RDF>
   <cc:Work rdf:about="">
    <dc:format>image/svg+xml</dc:format>
    <dc:type rdf:resource="http://purl.org/dc/dcmitype/StillImage"/>
    <dc:title/>
   </cc:Work>
  </rdf:RDF>
 </metadata>
 <defs id="defs4">
  <linearGradient id="linearGradient3764" gradientTransform="matrix(0 -1 1 0 -.0000015 48)" x1="1" x2="47" gradientUnits="userSpaceOnUse">
   <stop id="stop7" offset="0" style="stop-color:#edb367"/>
   <stop id="stop9" style="stop-color:#efbc79" offset="1"/>
  </linearGradient>
 </defs>
 <g id="g11">
  <path id="path13" style="opacity:.05" d="m36.31 5c5.859 4.062 9.688 10.831 9.688 18.5 0 12.426-10.07 22.5-22.5 22.5-7.669 0-14.438-3.828-18.5-9.688 1.037 1.822 2.306 3.499 3.781 4.969 4.085 3.712 9.514 5.969 15.469 5.969 12.703 0 23-10.298 23-23 0-5.954-2.256-11.384-5.969-15.469-1.469-1.475-3.147-2.744-4.969-3.781zm4.969 3.781c3.854 4.113 6.219 9.637 6.219 15.719 0 12.703-10.297 23-23 23-6.081 0-11.606-2.364-15.719-6.219 4.16 4.144 9.883 6.719 16.219 6.719 12.703 0 23-10.298 23-23 0-6.335-2.575-12.06-6.719-16.219z"/>
  <path id="path15" style="opacity:.1" d="m41.28 8.781c3.712 4.085 5.969 9.514 5.969 15.469 0 12.703-10.297 23-23 23-5.954 0-11.384-2.256-15.469-5.969 4.113 3.854 9.637 6.219 15.719 6.219 12.703 0 23-10.298 23-23 0-6.081-2.364-11.606-6.219-15.719z"/>
  <path id="path17" style="opacity:.2" d="m31.25 2.375c8.615 3.154 14.75 11.417 14.75 21.13 0 12.426-10.07 22.5-22.5 22.5-9.708 0-17.971-6.135-21.12-14.75a23 23 0 0 0 44.875 -7 23 23 0 0 0 -16 -21.875z"/>
 </g>
 <g id="g19">
  <path id="path21" style="fill:url(#linearGradient3764)" d="m24 1c12.703 0 23 10.297 23 23s-10.297 23-23 23-23-10.297-23-23 10.297-23 23-23z"/>
 </g>
 <g id="g23">
  <path id="path25" style="opacity:.1" d="m40.03 7.531c3.712 4.084 5.969 9.514 5.969 15.469 0 12.703-10.297 23-23 23-5.954 0-11.384-2.256-15.469-5.969 4.178 4.291 10.01 6.969 16.469 6.969 12.703 0 23-10.298 23-23 0-6.462-2.677-12.291-6.969-16.469z"/>
 </g>
 <circle id="circle4195" cy="25" style="opacity:.1" cx="25" r="15"/>
 <circle id="path4140" cy="24" style="fill:#ee7907" cx="24" r="15"/>
 <path id="rect4142" style="fill:#f9f9f9" d="m24 9a15 15 0 0 0 -6.547 1.518l-4.793 23.273a15 15 0 0 0 5.1855 3.875l2.082-10.666h3.072c8-0.00001 13-5.3455 13-11 0-0.36028-0.0223-0.71048-0.05859-1.0547a15 15 0 0 0 -11.941 -5.945zm-1.342 4h2.842c2 0 4.5 0.23858 4.5 3 0 4-3.5 7-6.5 7h-2.793l1.9512-10z"/>
</svg>

<svg xmlns="http://www.w3.org/2000/svg" viewBox="0 0 48 48">
  <defs>
    <linearGradient id="a" gradientTransform="rotate(-90 24 24)" x1="1" x2="47" gradientUnits="userSpaceOnUse">
      <stop offset="0" stop-color="#edb367"/>
      <stop offset="1" stop-color="#efbc79"/>
    </linearGradient>
  </defs>
  <path d="M36.31 5c5.859 4.062 9.688 10.831 9.688 18.5 0 12.426-10.07 22.5-22.5 22.5-7.669 0-14.438-3.828-18.5-9.688a23.24 23.24 0 0 0 3.781 4.969 22.923 22.923 0 0 0 15.469 5.969c12.703 0 23-10.298 23-23a22.92 22.92 0 0 0-5.969-15.469A23.216 23.216 0 0 0 36.31 5zm4.969 3.781A22.911 22.911 0 0 1 47.498 24.5c0 12.703-10.297 23-23 23a22.909 22.909 0 0 1-15.719-6.219C12.939 45.425 18.662 48 24.998 48c12.703 0 23-10.298 23-23 0-6.335-2.575-12.06-6.719-16.219z" opacity=".05"/>
  <path d="M41.28 8.781a22.923 22.923 0 0 1 5.969 15.469c0 12.703-10.297 23-23 23A22.92 22.92 0 0 1 8.78 41.281 22.911 22.911 0 0 0 24.499 47.5c12.703 0 23-10.298 23-23A22.909 22.909 0 0 0 41.28 8.781z" opacity=".1"/>
  <path d="M31.25 2.375C39.865 5.529 46 13.792 46 23.505c0 12.426-10.07 22.5-22.5 22.5-9.708 0-17.971-6.135-21.12-14.75a23 23 0 0 0 44.875-7 23 23 0 0 0-16-21.875z" opacity=".2"/>
  <path d="M24 1c12.703 0 23 10.297 23 23S36.703 47 24 47 1 36.703 1 24 11.297 1 24 1z" fill="url(#a)"/>
  <path d="M40.03 7.531A22.922 22.922 0 0 1 45.999 23c0 12.703-10.297 23-23 23A22.92 22.92 0 0 1 7.53 40.031C11.708 44.322 17.54 47 23.999 47c12.703 0 23-10.298 23-23 0-6.462-2.677-12.291-6.969-16.469z" opacity=".1"/>
  <circle cy="25" cx="25" r="15" opacity=".1"/>
  <circle cy="24" cx="24" r="15" fill="#ee7907"/>
  <path d="M24 9a15 15 0 0 0-6.547 1.518L12.66 33.791a15 15 0 0 0 5.186 3.875L19.928 27H23c8 0 13-5.346 13-11 0-.36-.023-.71-.06-1.055A15 15 0 0 0 24 9zm-1.342 4H25.5c2 0 4.5.239 4.5 3 0 4-3.5 7-6.5 7h-2.793l1.951-10z" fill="#f9f9f9"/>
</svg>
